X:073 
T:Horse Hill Slide*, The
S:Barrett < Collins
F:file ID: cre.4/073horse
B:CRE4.069: gan ainm [BB setting]
Q:180
L:1/8
M:12/8
R:jig
K:G
G/E/|D3 EDE G2A BAG|A2c BAG AGE G2E|
"5"D3 EDE G2A BAG|A2B cAF G3 G2:|
B|"9"d2B G2A B2c d^cd|e2A e2A e2A e3|
"13"d2B c2A BAG AGE|A2B cAF G3 GAB|
"17"d2B G2A B2c d^cd|e2A A2B c2d ede|
"21"d2B c2A BAG AGE|A2B cAF G3-G3 |]

%%%

